projects/jtProject/images/icons/SVG-raw/back.svg

<svg width="24" height="24" viewBox="0 0 24 24" version="1.1" xmlns="http://www.w3.org/2000/svg" xmlns:xlink="http://www.w3.org/1999/xlink">
<g id="Canvas" transform="translate(-1697 -5605)">
<g id="iconBack">
<g id="Ellipse">
<use xlink:href="#path0_fill" transform="translate(1697 5605)" fill="#FFFFFF"/>
</g>
<g id="Vector">
<use xlink:href="#path1_stroke" transform="translate(1704 5613)" fill="#E0E0E0"/>
</g>
</g>
</g>
<defs>
<path id="path0_fill" d="M 24 12C 24 18.6274 18.6274 24 12 24C 5.37258 24 0 18.6274 0 12C 0 5.37258 5.37258 0 12 0C 18.6274 0 24 5.37258 24 12Z"/>
<path id="path1_stroke" d="M 0 3L -0.707107 2.29289C -1.09763 2.68342 -1.09763 3.31658 -0.707107 3.70711L 0 3ZM 3.70711 0.707107C 4.09763 0.316583 4.09763 -0.316583 3.70711 -0.707107C 3.31658 -1.09763 2.68342 -1.09763 2.29289 -0.707107L 3.70711 0.707107ZM 2.29289 6.70711C 2.68342 7.09763 3.31658 7.09763 3.70711 6.70711C 4.09763 6.31658 4.09763 5.68342 3.70711 5.29289L 2.29289 6.70711ZM 8 8C 8 8.55229 8.44771 9 9 9C 9.55229 9 10 8.55229 10 8L 8 8ZM 0 4L 6 4L 6 2L 0 2L 0 4ZM 6 3C 6 4 5.99952 4 5.99906 4C 5.99892 4 5.99846 4 5.99818 4C 5.99841 4 5.99613 3.99999 5.99661 3.99999C 5.99691 3.99999 5.99362 3.99998 5.99424 3.99998C 5.99415 3.99998 5.99239 3.99996 5.99248 3.99996C 5.99535 4 5.99518 3.99999 6.00038 4.00018C 6.0163 4.00069 6.02956 4.00123 6.05766 4.00332C 6.12555 4.00807 6.1961 4.01468 6.30435 4.03327C 6.54637 4.0728 6.77805 4.12538 7.05279 4.26943C 7.5136 4.49984 8 4.93122 8 6L 10 6C 10 4.06878 8.9864 3.00016 7.94721 2.48057C 7.47195 2.24961 6.95363 2.1147 6.63315 2.06048C 6.46015 2.03219 6.29632 2.01537 6.20015 2.0084C 6.14622 2.00463 6.09503 2.00224 6.06701 2.00129C 6.05023 2.00075 6.03321 2.00036 6.02473 2.00022C 6.01915 2.00014 6.0129 2.00007 6.01011 2.00004C 6.00805 2.00003 6.00551 2.00001 6.00448 2.00001C 6.00364 2.00001 6.00252 2 6.0021 2C 6.00172 2 6.0012 2 6.00101 2C 6.0005 2 6 2 6 3ZM 0.707107 3.70711L 3.70711 0.707107L 2.29289 -0.707107L -0.707107 2.29289L 0.707107 3.70711ZM -0.707107 3.70711L 2.29289 6.70711L 3.70711 5.29289L 0.707107 2.29289L -0.707107 3.70711ZM 8 6L 8 8L 10 8L 10 6L 8 6Z"/>
</defs>
</svg>

<svg width="24" height="24" xmlns="http://www.w3.org/2000/svg" xmlns:xlink="http://www.w3.org/1999/xlink"><use xlink:href="#path0_fill" fill="#FFF"/><use xlink:href="#path1_stroke" transform="translate(7 8)" fill="#E0E0E0"/><defs><path id="path0_fill" d="M24 12c0 6.627-5.373 12-12 12S0 18.627 0 12 5.373 0 12 0s12 5.373 12 12z"/><path id="path1_stroke" d="M0 3l-.707-.707a1 1 0 0 0 0 1.414L0 3zM3.707.707A1 1 0 0 0 2.293-.707L3.707.707zm-1.414 6a1 1 0 0 0 1.414-1.414L2.293 6.707zM8 8a1 1 0 1 0 2 0H8zM0 4h6V2H0v2zm6-1v1h-.002-.001-.003-.002H6l.058.003c.068.005.138.012.246.03.242.04.474.092.749.236C7.513 4.5 8 4.931 8 6h2c0-1.931-1.014-3-2.053-3.52a5.194 5.194 0 0 0-1.314-.42A5.192 5.192 0 0 0 6.025 2H6.004h-.002-.001L6 3zm-5.293.707l3-3L2.293-.707l-3 3L.707 3.707zm-1.414 0l3 3 1.414-1.414-3-3-1.414 1.414zM8 6v2h2V6H8z"/></defs></svg>
